X: 23430
T: Leslie's March
R: jig
M: 6/8
K: Dmajor
|:d3d3|dcB ABc|dcB AGF|F/G/AF E2D|
e3e3|fed eag|fed dAB|d>ef/g/ e2d:|
|:fdd eAA|fed eAA|gee fBB|ga/g/f/e/ fBB|
fdd eAA|fg/f/e/d/ ebg|fed dAB|d>ef/g/ e2d:|
|:dfa dfa|dfa agf|egb egb|egb bge|
dfa dfa|dfa a2g|fed dAB|d>ef/g/ e2d:|

